Numix/16/mimetypes/text-x-arduino.svg

<?xml version="1.0" encoding="UTF-8" standalone="no"?>
<svg
   xmlns:dc="http://purl.org/dc/elements/1.1/"
   xmlns:cc="http://creativecommons.org/ns#"
   xmlns:rdf="http://www.w3.org/1999/02/22-rdf-syntax-ns#"
   xmlns:svg="http://www.w3.org/2000/svg"
   xmlns="http://www.w3.org/2000/svg"
   xmlns:sodipodi="http://sodipodi.sourceforge.net/DTD/sodipodi-0.dtd"
   xmlns:inkscape="http://www.inkscape.org/namespaces/inkscape"
   width="16"
   height="16"
   viewBox="0 0 16 16"
   id="svg2"
   version="1.1"
   inkscape:version="0.91 r13725"
   sodipodi:docname="application-arduino_16-8-.svg">
  <metadata
     id="metadata16">
    <rdf:RDF>
      <cc:Work
         rdf:about="">
        <dc:format>image/svg+xml</dc:format>
        <dc:type
           rdf:resource="http://purl.org/dc/dcmitype/StillImage" />
        <dc:title></dc:title>
      </cc:Work>
    </rdf:RDF>
  </metadata>
  <defs
     id="defs14">
    <clipPath
       id="clipPath-258929573">
      <g
         transform="translate(0,-1004.3622)"
         id="g17">
        <path
           inkscape:connector-curvature="0"
           d="m -24,13 c 0,1.105 -0.672,2 -1.5,2 -0.828,0 -1.5,-0.895 -1.5,-2 0,-1.105 0.672,-2 1.5,-2 0.828,0 1.5,0.895 1.5,2 z"
           transform="matrix(15.333333,0,0,11.5,414.99999,878.8622)"
           style="fill:#1890d0"
           id="path19" />
      </g>
    </clipPath>
  </defs>
  <sodipodi:namedview
     pagecolor="#ffffff"
     bordercolor="#666666"
     borderopacity="1"
     objecttolerance="10"
     gridtolerance="10"
     guidetolerance="10"
     inkscape:pageopacity="0"
     inkscape:pageshadow="2"
     inkscape:window-width="1920"
     inkscape:window-height="1013"
     id="namedview12"
     showgrid="true"
     inkscape:zoom="1"
     inkscape:cx="9.025587"
     inkscape:cy="6.5008366"
     inkscape:window-x="0"
     inkscape:window-y="27"
     inkscape:window-maximized="1"
     inkscape:current-layer="svg2">
    <inkscape:grid
       type="xygrid"
       id="grid3018" />
  </sodipodi:namedview>
  <path
     style="fill:#0ca1a6;fill-opacity:1"
     d="M 2.667969,-4.46e-4 C 2.324219,-4.46e-4 2,0.3378121 2,0.6964468 L 2,15.303108 C 2,15.641365 2.34375,16 2.667969,16 l 10.664062,0 C 13.65625,16 14,15.641365 14,15.303108 l 0,-11.303554 -4,-4 z"
     id="path4-7"
     inkscape:connector-curvature="0"
     sodipodi:nodetypes="ssssssccs" />
  <path
     style="fill:#000000;fill-opacity:0.19599998"
     d="m 10.583223,3.331585 0.0154,0.019531 0.04005,-0.019531 z M 10.613,3.999554 14,7.663616 14,3.999554 z"
     id="path6-6"
     inkscape:connector-curvature="0"
     sodipodi:nodetypes="cccccccc" />
  <path
     style="fill:#ffffff;fill-opacity:0.39200003"
     d="m 10,-4.46e-4 3.996396,4 -3.383784,0 C 10.313513,3.999554 10,3.6824369 10,3.3833376 z"
     id="path8-0"
     inkscape:connector-curvature="0"
     sodipodi:nodetypes="ccssc" />
  <path
     style="fill:#ffffff"
     d="m 4,9 0,1 0,0 c 2.9999995,0 0,0 2.9999995,0 l 0,-1 C 5.0470297,9 5.6875457,9 4,9 Z"
     id="polygon47-0"
     inkscape:connector-curvature="0"
     sodipodi:nodetypes="cccccc" />
  <circle
     style="opacity:0.7;fill:none;fill-opacity:1;fill-rule:nonzero;stroke:#ffffff;stroke-width:0.70050198;stroke-opacity:1"
     id="path4162"
     cx="5.5"
     cy="9.5"
     r="2.149749" />
  <path
     style="fill:#ffffff"
     d="m 9,9 0,1 0,0 1,0 0,0 0,1 0,0 1,0 0,-1 1,0 0,-1 -1,0 0,-1 -1,0 0,1 z"
     id="polygon47"
     inkscape:connector-curvature="0"
     sodipodi:nodetypes="cccccccccccccccc" />
  <circle
     style="opacity:0.7;fill:none;fill-opacity:1;fill-rule:nonzero;stroke:#ffffff;stroke-width:0.70050198;stroke-opacity:1"
     id="path4162-4"
     cx="10.5"
     cy="9.5"
     r="2.149749" />
</svg>

<svg xmlns="http://www.w3.org/2000/svg" viewBox="0 0 16 16">
 <defs>
  
 </defs>
 <path d="m 2.668 0 c -0.344 0 -0.668 0.338 -0.668 0.697 l 0 14.607 c 0 0.338 0.344 0.697 0.668 0.697 l 10.664 0 c 0.324 0 0.668 -0.359 0.668 -0.697 l 0 -11.304 -4 -4 z" style="fill:#0ca1a6;fill-opacity:1"/>
 <path d="m 10.583 3.332 0.015 0.02 0.04 -0.02 z m 0.03 0.668 3.387 3.664 0 -3.664 z" style="fill:#000;fill-opacity:0.196"/>
 <path d="m 10 0 3.996 4 -3.384 0 c -0.299 0 -0.613 -0.317 -0.613 -0.616 z" style="fill:#fff;fill-opacity:0.392"/>
 <path d="m 4 9 0 1 0 0 c 3 0 0 0 3 0 l 0 -1 c -1.953 0 -1.312 0 -3 0" style="fill:#fff"/>
 <circle cx="5.5" cy="9.5" r="2.15" style="stroke-opacity:1;fill:none;opacity:0.7;fill-opacity:1;stroke:#fff;fill-rule:nonzero;stroke-width:0.701"/>
 <path d="m 9 9 0 1 0 0 1 0 0 0 0 1 0 0 1 0 0 -1 1 0 0 -1 -1 0 0 -1 -1 0 0 1 z" style="fill:#fff"/>
 <circle cx="10.5" cy="9.5" r="2.15" style="stroke-opacity:1;fill:none;opacity:0.7;fill-opacity:1;stroke:#fff;fill-rule:nonzero;stroke-width:0.701"/>
</svg>
